X:1
T:Room For Company
M:6/8
L:1/8
K:Bb
 B2 B, DEF| GcBA-G A| B2 B, DEF| GcA B3| BBB,D-E F| GcBA-G A| B2 B, DEF|\
 GcA B3| dcBd-c B| dcBd-c B|c-A B cAB| ced c3| B2 B, DEF| GcBA-G A|\
 B2 B, DEF| GcA B3|
